X: 32962
T: Pressed For Time
R: reel
M: 4/4
K: Amixolydian
|:GAg GAf GA|e GAe GAeA|GA (3AAA dAcA|GAdA cAGA|
GAg GAf GA|e GAe GAeA|GA (3AAA dAcA|1 (3GAA eA e z3:|2 (3GAA eA e z (3DEF||
|:G2 dA cAGA|(3AAAdA cAGA|cd (3ddd ed (3ddd|fa (3aaa a2 af|
eA (3AAA dAcA|GAdA cAGA|GA (3AAA dAcA|1 (3GAA eA e z (3DEF:|2 (3GAA eA e z ef||
|:fg (3ggg gfef|fg (3ggg gfef|ff (3fff fede|aa (3aaa a2 af|
eA (3AAA dAcA|GAdA cAGA|GA (3AAA dAcA|1 (3GAA eA e z ef:|2 (3GAA eA e z3||

